X: 221
T: Mudanhua chuanzaolin
L: 1/8
M: 2/4
K: C
c c d [I:setbarnb 1]| 
g d c d | 
[M:3/8]g e g | 
c2A | 
c c c/ d/ | 
[M:2/4]g B d d | 
c B A G | 
D4 | 
G G/ G/ c c/ c/ | 
d g f e | 
g d/ e/ d c/ d/ | 
c EG2 | 
z c c c/ d/ | 
c B A G | 
c c/ d/ c B | 
A GD2 |]

@@@ Tune index: 9095
